icons/gnome-dark.svg

<svg width="256" height="256" viewBox="0 0 256 256" fill="none" xmlns="http://www.w3.org/2000/svg">
<path d="M196 0H60C26.8629 0 0 26.8629 0 60V196C0 229.137 26.8629 256 60 256H196C229.137 256 256 229.137 256 196V60C256 26.8629 229.137 0 196 0Z" fill="#282828"/>
<path d="M195.076 24C151.607 24 143.453 85.913 167.906 85.913C192.356 85.913 238.546 24 195.076 24Z" fill="#FCFCFC"/>
<path d="M122.897 78.2414C135.917 79.0365 150.203 28.5534 125.731 31.7285C101.269 34.9035 109.872 77.4463 122.897 78.2414Z" fill="#FCFCFC"/>
<path d="M63.2265 109.61C72.4867 105.534 64.4192 65.6644 48.6728 76.5377C32.9335 87.4128 53.9663 113.684 63.2265 109.61Z" fill="#FCFCFC"/>
<path d="M89.3177 88.7419C100.341 86.4944 100.945 41.2766 81.2873 49.3883C61.6255 57.5018 78.303 90.9929 89.3177 88.7419Z" fill="#FCFCFC"/>
<path d="M146.88 189.932C148.836 204.869 135.922 212.246 123.275 202.617C83.0133 171.963 189.937 156.671 182.889 114.793C177.039 80.0311 70.382 90.7331 58.2365 145.124C50.0152 181.912 92.0774 232.95 135.966 232.95C157.558 232.95 182.462 213.455 187.121 188.757C190.679 169.924 145.248 177.471 146.88 189.932Z" fill="#FCFCFC"/>
</svg>

<svg xmlns="http://www.w3.org/2000/svg" width="256" height="256" fill="none"><path fill="#282828" d="M196 0H60C26.863 0 0 26.863 0 60v136c0 33.137 26.863 60 60 60h136c33.137 0 60-26.863 60-60V60c0-33.137-26.863-60-60-60"/><path fill="#FCFCFC" d="M195.076 24c-43.469 0-51.623 61.913-27.17 61.913 24.45 0 70.64-61.913 27.17-61.913m-72.179 54.241c13.02.796 27.306-49.688 2.834-46.512-24.462 3.175-15.859 45.717-2.834 46.512m-59.67 31.369c9.26-4.076 1.192-43.946-14.554-33.072-15.74 10.875 5.293 37.146 14.554 33.072m26.091-20.868c11.023-2.248 11.627-47.465-8.03-39.354-19.662 8.114-2.985 41.605 8.03 39.354m57.562 101.19c1.956 14.937-10.958 22.314-23.605 12.685-40.262-30.654 66.662-45.946 59.614-87.824-5.85-34.762-112.507-24.06-124.652 30.331-8.222 36.788 33.84 87.826 77.729 87.826 21.592 0 46.496-19.495 51.155-44.193 3.558-18.833-41.873-11.286-40.241 1.175"/></svg>
